X: 21493
T: Kick The World Before Me
R: slip jig
M: 9/8
K: Edorian
|:f|g2 e fdB B2 d|gg/f/e fed e2 f|gee fdB Bd/e/f|g2 b aa/g/f e2:|
|:f|gdg gbg f2 a|gg/g/g gbg a2 f|gdg gbg ff/g/a|gfe fdB A2:|

